X:1
T: Air on the Moon
C:Gordy Euler
R:Jig
Q: 180
K:A
M:6/8
L:1/16
|:A4A2 E2A2c2|E2d2c2 B2A2=G2|F2A2d2 e2c2e2|d2B2A2 G2F2G2|
A4A2 E2A2c2|E2d2c2 B2A2=G2|F2A2d2 e2c2e2|d2D2G2 A6:|
|:A2c2e2 a2e2c2|A2c2e2 =g2e2c2|d2f2a2 a2e2a2|b2f2d2 B2A2G2|
A2c2e2 a2e2f2|=g2e2g2 f2d2f2|e2c2e2 Bcd2c2|d2B2G2 A6:|
